!!!OTL: Ermunterung zur Freude.
!!!OTL-incipit:ZU DES LEBENS FREUDEN SCHUF UNS DIE NATUR
!!!ARE: Europa, Mitteleuropa, Deutschland
!!!SCT: F0264
!!!TXL: @@DE
!!!YEM: Copyright 1995, estate of Helmut Schaffrath.
**kern	**text
*ICvox	*
*clefG2	*
*M6/8	*
*k[f#]	*
*G:	*
=1	=1
!LO:TX:a:t=Feſt.	!
!LO:TX:a:t=P:only the highest voice encoded:problem	!
{4b/	1._Ʒu
8b/	des
4b/	Le-
8cc	-bens
=2	=2
4.dd	Freuden
4b	.
8r}	.
=3	=3
{4cc/	ſchuf
8b/	uns
4cc/	die
8dd/	Na-
=4	=4
4.b/	-tur,
4r	.
8r}	.
=5	=5
{4b/	a-
8b/	-ber
8.cc#/L	Gram
16bJ	.
8cc#/	und
=6	=6
4.dd/	Lei-
4.a}	-den
=7	=7
{4a	ſchaffen
8dd/	.
8.cc#/L	wir
16bJ	.
8cc#/	uns
=8	=8
4.dd/	nur.
4r	.
8r}	.
=9	=9
{4a	Kümmern
8a	.
4b/	uns
8b/	und
=10	=10
4.cc/	ha-
4.a}	-ben
=11	=11
{4gn	un-
8g	-ſre
8.aL	gro-
16gJ	.
8a/	-ße
=12	=12
4.b/	Noth;
4r	.
8r}	.
=13	=13
{4cc/	und
8cc/	doch
4b/	gibt
8b/	dem
=14	=14
(>4ee/	Ra-
8a)	.
4.a}	-ben
=15	=15
{4a	täg-
8b/	-lich
4cc/	Gott
8dd/	ſein
=16	=16
4.b/	Brot,
4r	.
8r}	.
=17	=17
{4cc/	und
8cc/	doch
4b/	gibt
8b/	dem
=18	=18
[>4.ee/	Ra-
8ee/L]	.
8ddJ	.
8cc/}	-ben
=19	=19
{4b/	täg-
8b/	-lich
4cc/	Gott
8a	ſein
=20	=20
4.g	Brot.
4r	.
8r}	.
==	==
!!!AGN: Jugend - Lied, Belehrung, Natur
!!!ONB: ESAC (Essen Associative Code) Database: FINK
!!!AMT: compound duple
!!!AIN: vox
!!!EED: Helmut Schaffrath
!!!EEV: 1.0
!!!RDF**kern: > = above
!!!GTL: Jugendlieder
!!Umgearbeitet von G. W. Fink.
!!Text: Fr. v. Roepfen
!!!source: Musikalischer Hausschatz der Deutschen. Eine Sammlung von über 1000 Liedern und Gesängen mit Singstimmen und Klavierbegleitung. Leipzig, Litterarisches Verlags-Haus.
!!!page: 159
!!!URL-scan: https://www.digitale-sammlungen.de/en/view/bsb11144622?page=156,157
!!!ENC: Anna Maria Matuszewska
!!!EEV: 2024/07/29
*-	*-